m/partners/pnr14.svg

<svg width="131" height="40" viewBox="0 0 131 40" fill="none" xmlns="http://www.w3.org/2000/svg">
<path d="M14.8589 8.76209C12.9289 9.15023 11.3638 10.1715 10.3216 11.7392C9.67454 12.7039 9.25319 13.8419 8.9936 15.2664C8.78292 16.4723 8.83558 18.1568 9.15161 19.7772C9.64821 22.336 11.044 25.0681 13.0154 27.348C14.4112 28.9571 16.8189 30.5549 18.8355 31.2069C20.8633 31.8664 23.1394 31.8249 25.1597 31.1051C26.3975 30.6642 28.0905 29.6731 29.2116 28.7461C29.8173 28.2449 31.0814 26.9561 31.1379 26.779C31.1529 26.73 31.2658 26.5755 31.3824 26.4247C32.8045 24.6611 33.9482 22.3021 34.4298 20.1503C34.7834 18.5751 34.9527 16.9283 34.8323 16.3178C34.7909 16.1332 34.7082 15.6583 34.648 15.2664C34.1363 11.9426 32.2665 9.68912 29.3207 8.87137C28.8655 8.75078 28.6134 8.72817 27.4359 8.72817C26.1793 8.72063 26.0213 8.73571 25.3478 8.90529C24.2455 9.18415 23.068 9.67029 22.0898 10.2544L21.8528 10.3976L21.0702 9.9906C20.077 9.46302 19.3961 9.19546 18.4254 8.9392C17.7256 8.76209 17.5225 8.73571 16.4202 8.71687C15.7505 8.70179 15.0507 8.72817 14.8589 8.76209ZM17.609 11.1023C18.1395 11.2116 18.7715 11.4264 19.4186 11.7052L19.8061 11.8824L19.08 12.636C18.6775 13.0506 18.305 13.4689 18.2448 13.5668C18.1846 13.6648 17.9326 14.0153 17.6805 14.3544C16.7813 15.5754 16.0139 16.9848 15.5097 18.3565C15.3856 18.6882 15.2576 19.0009 15.2238 19.0424C15.1373 19.163 14.9868 19.7132 14.7799 20.6628C14.6106 21.4843 14.5955 21.6614 14.5955 23.2404C14.588 24.5782 14.6143 25.0229 14.6971 25.3583C14.7573 25.5957 14.7911 25.7841 14.7648 25.7841C14.7046 25.7766 13.9145 24.8006 13.5346 24.2504C11.8002 21.7594 10.901 18.5035 11.2434 15.9259C11.3675 15.0102 11.755 13.7892 12.12 13.1862C12.6015 12.3647 13.6023 11.5432 14.4864 11.2342C15.3216 10.9327 16.5255 10.8875 17.609 11.1023ZM28.8354 11.1362C31.4727 11.8409 32.8873 14.7313 32.4057 18.4018C32.1386 20.4292 31.4388 22.2682 30.265 24.0469C29.8361 24.6913 28.9671 25.7954 28.9257 25.7577C28.9106 25.7427 28.9445 25.4676 29.0009 25.1322C29.2304 23.7152 29.1928 22.1966 28.873 20.595C28.7113 19.7885 28.3915 18.6618 28.3012 18.5939C28.2824 18.5751 28.1582 18.3038 28.0303 17.9834C27.9024 17.6631 27.6842 17.1695 27.5337 16.8793C27.2628 16.3291 27.0898 16.1934 26.8264 16.2952C26.7436 16.3216 25.63 16.9999 24.3433 17.8026C23.0567 18.6015 21.8829 19.3212 21.7249 19.3966C21.5744 19.472 21.4126 19.585 21.3637 19.6416C21.2207 19.8111 21.3148 20.2445 21.5556 20.5761C21.6722 20.7382 21.8678 21.0246 21.9995 21.213C22.2252 21.5446 22.3531 21.6464 22.5375 21.6464C22.6127 21.6464 24.1703 20.6817 25.3817 19.8752C25.694 19.6717 25.9874 19.4757 26.0363 19.4531C26.1379 19.3928 26.3411 20.0222 26.5743 21.1339C27.086 23.6022 26.6834 26.0781 25.5209 27.6118C25.1071 28.162 24.5277 28.6217 23.8693 28.9345C23.1432 29.2812 22.5074 29.3943 21.6045 29.3566C20.299 29.2888 19.4901 28.9345 18.5721 28.0188C18.0906 27.5364 17.9326 27.3216 17.7068 26.8581C16.7738 24.9174 16.6534 23.0068 17.2855 20.4405C18.2712 16.412 21.4954 12.6586 25.0732 11.3774C25.5209 11.2229 26.3373 11.0307 26.8753 10.9629C27.3117 10.9139 28.3275 11.0005 28.8354 11.1362ZM46.3823 13.4086C45.6562 13.4839 45.0279 13.5932 44.851 13.6724C44.7419 13.7213 44.3732 13.8683 44.0497 14.004C43.1054 14.3771 42.4922 14.7991 41.657 15.6319C41.0324 16.2613 40.8556 16.4874 40.5885 16.9961C39.9677 18.1983 39.7382 19.3099 39.806 20.7608C39.8662 22.0006 40.1671 23.0407 40.7653 24.0356C41.0701 24.5443 41.9353 25.4412 42.5147 25.8406C43.2145 26.3305 44.298 26.8317 44.9827 26.9862C45.6486 27.137 47.1234 27.1294 47.8382 26.9712C48.8051 26.7601 50.0767 26.0743 50.7577 25.4035L51.0775 25.0832V25.754C51.0775 26.2966 51.1038 26.4587 51.2129 26.6358L51.3484 26.8581H52.2814C52.7968 26.8581 53.2558 26.8317 53.2934 26.8054C53.5116 26.6622 53.5229 26.4474 53.5229 23.7454C53.5229 21.3713 53.5079 21.017 53.4138 20.9304C53.3273 20.8362 52.9774 20.8211 50.6674 20.8211H48.0226L47.8871 20.9982C47.763 21.1527 47.7442 21.2771 47.7442 21.9479C47.7442 22.7015 47.7517 22.7204 47.9285 22.89C48.1129 23.052 48.1542 23.0595 48.9819 23.0595C49.4635 23.0595 49.851 23.0859 49.851 23.1198C49.851 23.248 49.1964 23.7492 48.7374 23.9828C48.0903 24.2956 47.2814 24.4425 46.4989 24.3898C44.6968 24.2692 43.4026 23.2178 42.9361 21.4919C42.8533 21.1866 42.8195 20.806 42.8195 20.2106C42.8195 19.4644 42.8458 19.2949 43.0113 18.82C43.4477 17.5576 44.2905 16.6909 45.4718 16.2688C46.0286 16.0729 47.1309 16.0239 47.8119 16.1671C48.8728 16.3894 49.8247 17.0564 50.3213 17.9232C50.6222 18.447 50.7013 18.4809 51.2204 18.3038C52.1459 17.9835 53.079 17.584 53.1392 17.4823C53.2295 17.3466 53.0112 16.8228 52.6012 16.1859C51.9202 15.1421 51.0511 14.4411 49.8209 13.9663C49.5199 13.8495 49.2302 13.7289 49.1625 13.695C48.8578 13.5367 47.0294 13.3483 46.3823 13.4086ZM65.197 13.7138L65.0201 13.8495V20.1918C65.0201 25.916 65.0352 26.5491 65.1293 26.6961L65.2384 26.8657L68.2444 26.8581C71.3444 26.8581 71.446 26.8506 72.4693 26.5717C74.6062 26.0027 75.9719 24.9249 76.7883 23.1801C77.2586 22.1777 77.3602 21.6464 77.3677 20.2144C77.3677 18.7296 77.2661 18.2322 76.7281 17.128C75.8854 15.4134 74.4482 14.3545 72.2323 13.8231C71.2654 13.6008 70.8704 13.5706 68.0751 13.5706C65.449 13.5744 65.3738 13.5782 65.197 13.7138ZM71.6378 16.3819C72.5709 16.6381 73.2443 17.1356 73.8199 17.9759C73.9967 18.2397 74.2074 18.6392 74.2751 18.8728C74.452 19.4305 74.5046 20.2784 74.4106 20.8889C74.3353 21.3901 74.1096 22.1174 74.0156 22.1853C73.9817 22.2041 73.8388 22.4038 73.6958 22.6186C73.1804 23.3836 72.4994 23.8584 71.5739 24.0921C71.1262 24.2089 70.8177 24.2277 69.4596 24.2277H67.8757V20.2747C67.8757 18.0965 67.8945 16.2914 67.9283 16.265C67.9547 16.2311 68.7109 16.2236 69.6101 16.2462C70.8215 16.2575 71.3444 16.299 71.6378 16.3819ZM96.2388 13.6196C95.9792 13.7214 95.9755 13.8156 95.9679 16.2123V18.545L95.6293 18.2246C94.5157 17.1808 92.4465 17.0979 90.9041 18.0362C90.6783 18.1719 90.3134 18.4696 90.0801 18.6994C88.6505 20.1164 88.2931 22.5923 89.2374 24.5255C90.035 26.1685 91.822 27.2387 93.5639 27.1181C94.4668 27.0578 94.986 26.8204 95.6858 26.161L95.9717 25.8896V26.21C95.9717 26.3946 96.0206 26.6019 96.0808 26.6998C96.1899 26.8694 96.1975 26.8694 97.2998 26.8694C98.2178 26.8694 98.4284 26.8506 98.5187 26.7601C98.6128 26.6659 98.6278 25.9876 98.6278 20.2634C98.6278 13.9286 98.6278 13.8721 98.4924 13.7251C98.3569 13.5819 98.2968 13.5744 97.3487 13.5819C96.7881 13.5781 96.2915 13.6008 96.2388 13.6196ZM94.6738 20.0636C95.0876 20.2521 95.6105 20.7834 95.825 21.2356C95.9755 21.5559 96.0018 21.7029 96.0018 22.2531C96.0018 22.8485 95.983 22.9389 95.7761 23.3535C95.3886 24.1411 94.7076 24.5594 93.8235 24.5594C92.4766 24.5594 91.5398 23.5004 91.6264 22.0835C91.6677 21.4391 91.9048 20.9304 92.375 20.4819C92.8792 19.992 93.2178 19.8714 93.9251 19.9054C94.1846 19.9204 94.4969 19.9807 94.6738 20.0636ZM106.882 13.7402L106.713 13.9022V16.2161C106.713 17.486 106.698 18.5223 106.679 18.5223C106.664 18.5223 106.517 18.3867 106.344 18.2246C106.032 17.9194 105.52 17.6481 105.005 17.4973C104.557 17.3692 103.361 17.3805 102.841 17.5237C101.924 17.7762 100.99 18.3867 100.475 19.0914C100.306 19.3137 100.148 19.5172 100.114 19.5398C100.027 19.6001 99.8355 20.0146 99.6699 20.5234C99.4254 21.262 99.3351 22.1023 99.4179 22.8108C99.5007 23.4213 99.7715 24.3559 99.9634 24.6498C100.528 25.4902 101.16 26.1082 101.927 26.5491C102.582 26.9222 103.037 27.0654 103.756 27.1181C104.79 27.1935 105.577 26.9071 106.333 26.1836C106.491 26.0328 106.634 25.9198 106.66 25.9198C106.686 25.9198 106.709 26.0404 106.709 26.1986C106.709 26.4775 106.803 26.7262 106.939 26.8167C107.04 26.8845 109.102 26.8845 109.203 26.8167C109.414 26.681 109.429 26.3494 109.429 20.2181C109.429 13.6648 109.437 13.7402 109.124 13.6196C109.064 13.6008 108.568 13.5781 108.03 13.5781C107.074 13.5744 107.036 13.5782 106.882 13.7402ZM105.366 20.0561C105.795 20.2747 106.216 20.6854 106.412 21.0811C106.521 21.2997 106.641 21.4956 106.679 21.522C106.72 21.5484 106.747 21.8536 106.747 22.2003C106.747 22.7618 106.728 22.8711 106.551 23.2253C106.107 24.0921 105.539 24.4991 104.674 24.5481C103.737 24.5971 103.03 24.1901 102.62 23.3535C102.416 22.9389 102.394 22.8523 102.394 22.2531C102.401 21.6916 102.42 21.5597 102.586 21.2356C102.781 20.8437 102.872 20.7269 103.259 20.3613C103.759 19.9016 104.768 19.7508 105.366 20.0561ZM120.701 15.5867C120.674 15.6056 120.652 15.8392 120.652 16.0955C120.652 16.461 120.671 16.5552 120.753 16.5552C120.829 16.5552 120.855 16.4798 120.855 16.265V15.9787L120.99 16.1972C121.066 16.3178 121.148 16.4196 121.182 16.4196C121.216 16.4196 121.291 16.3178 121.351 16.1972L121.461 15.9787V16.265C121.468 16.51 121.487 16.5552 121.604 16.5552C121.731 16.5552 121.746 16.5213 121.728 16.0615C121.709 15.6282 121.694 15.5717 121.57 15.5717C121.487 15.5717 121.385 15.6659 121.291 15.8354L121.141 16.0917L121.066 15.8543C121.017 15.7262 120.938 15.598 120.881 15.5754C120.757 15.534 120.757 15.534 120.701 15.5867ZM58.3197 17.4672C56.5665 17.8139 55.1707 18.9745 54.6403 20.5271C54.5387 20.8249 54.4296 21.1037 54.3957 21.1527C54.2264 21.3713 54.2189 23.214 54.3957 23.4326C54.4296 23.4816 54.4973 23.6361 54.5462 23.7868C54.708 24.3144 55.1181 24.989 55.5583 25.4638C55.9796 25.9198 56.9051 26.6019 57.097 26.6019C57.1459 26.6019 57.2211 26.6433 57.2587 26.6961C57.3001 26.7451 57.571 26.8581 57.8645 26.9486C58.5567 27.1596 59.7681 27.1709 60.5319 26.9825C61.13 26.8317 62.1082 26.3117 62.6349 25.8708C64.2188 24.5292 64.7041 22.336 63.8727 20.2935C63.4513 19.261 62.5672 18.3528 61.5063 17.8704C60.6071 17.4521 59.2452 17.2825 58.3197 17.4672ZM60.0014 20.0561C60.1368 20.1051 60.3362 20.2106 60.4378 20.301C61.3407 21.0547 61.5138 21.3675 61.5176 22.2531C61.5176 22.7694 61.4912 22.8824 61.2993 23.2706C60.9946 23.8961 60.3964 24.3295 59.6478 24.484C58.7147 24.6724 57.729 24.1712 57.2587 23.2555C57.0293 22.8071 56.9992 21.9478 57.2061 21.4052C57.3679 20.9718 57.9397 20.3274 58.3611 20.1164C58.8088 19.879 59.4371 19.8601 60.0014 20.0561ZM82.0554 17.4107C81.3556 17.5539 81.1299 17.6141 80.7273 17.7762C79.5385 18.2661 78.6882 19.1743 78.2706 20.4066C78.0072 21.1716 77.9094 21.8235 77.9583 22.5583C78.0072 23.3384 78.1427 23.8471 78.4813 24.5255C78.929 25.4412 79.768 26.2891 80.5091 26.5679C80.6671 26.6282 80.795 26.7036 80.795 26.7375C80.795 26.9146 82.2021 27.1709 82.8643 27.1181C83.7484 27.0428 84.2525 26.8129 84.9334 26.161L85.2194 25.8896V26.21C85.2194 26.3946 85.2683 26.6019 85.3285 26.6998C85.4376 26.8694 85.4451 26.8694 86.5813 26.8694C87.5933 26.8694 87.7325 26.8544 87.8266 26.7488C87.9281 26.632 87.9432 26.225 87.9432 22.2455C87.9432 18.0927 87.9357 17.8629 87.819 17.7611C87.7099 17.6669 87.5181 17.6443 86.6076 17.6443C85.2946 17.6443 85.2194 17.6707 85.2194 18.202V18.5487L84.8845 18.2359C84.4707 17.8478 83.9741 17.5991 83.3872 17.4709C82.9696 17.3767 82.3639 17.3504 82.0554 17.4107ZM83.8198 20.0373C83.9891 20.0862 84.2412 20.2671 84.5422 20.5611C84.956 20.9605 85.02 21.0547 85.1554 21.5032C85.5241 22.6978 85.0538 23.8622 84.0042 24.3521C83.4586 24.6046 82.6987 24.5971 82.1457 24.337C81.6918 24.1106 81.3273 23.7375 81.1111 23.2781C80.9944 23.0219 80.9681 22.8372 80.9681 22.2531C80.9681 21.6275 80.9869 21.4994 81.1374 21.2092C81.4007 20.6816 82.0027 20.1315 82.4278 20.0146C82.9809 19.879 83.2818 19.879 83.8198 20.0373ZM110.174 17.7084C109.948 17.8365 109.971 18.0814 110.309 19.1818C112.16 25.151 112.601 26.5227 112.71 26.6772C112.838 26.8657 112.853 26.8657 113.56 26.8657C114.105 26.8657 114.267 26.8845 114.241 26.9486C114.226 26.9976 114.158 27.2048 114.105 27.4158C113.876 28.211 113.507 28.5162 112.766 28.52C112.352 28.52 112.236 28.4936 111.814 28.2675C111.257 27.9773 111.013 27.9547 110.814 28.1658C110.513 28.4899 109.978 29.3943 109.978 29.5752C109.978 29.8276 110.245 30.0688 110.821 30.3552C112.01 30.9393 113.793 30.9318 114.888 30.3402C115.37 30.0764 115.975 29.4433 116.254 28.9082C116.521 28.3994 116.6 28.1469 116.942 26.926C117.07 26.4587 117.465 25.087 117.819 23.8735C118.831 20.4216 119.5 18.0739 119.5 17.9533C119.5 17.9005 119.452 17.7988 119.391 17.7423C119.305 17.6556 119.09 17.633 118.135 17.633C117.108 17.633 116.972 17.6481 116.863 17.7536C116.728 17.8892 116.652 18.1342 116.032 20.5158C115.373 23.052 114.978 24.484 114.944 24.484C114.918 24.484 114.395 22.6865 113.47 19.3966C113.342 18.9293 113.206 18.5148 113.176 18.4809C113.15 18.4394 113.082 18.2849 113.033 18.1229C112.898 17.6556 112.838 17.633 111.476 17.633C110.821 17.6405 110.234 17.6744 110.174 17.7084Z" fill="#2B354E"/>
</svg>

<svg xmlns="http://www.w3.org/2000/svg" fill="none" viewBox="0 0 131 40"><path fill="#2B354E" d="M14.859 8.762c-1.93.388-3.495 1.41-4.537 2.977-.647.965-1.069 2.103-1.328 3.527-.211 1.206-.158 2.89.158 4.511.496 2.559 1.892 5.291 3.863 7.571 1.396 1.61 3.804 3.207 5.82 3.859 2.028.66 4.304.618 6.325-.102 1.238-.44 2.93-1.432 4.052-2.359.605-.501 1.87-1.79 1.926-1.967.015-.049.128-.203.244-.354 1.422-1.764 2.566-4.123 3.048-6.275.353-1.575.523-3.222.402-3.832-.041-.185-.124-.66-.184-1.052-.512-3.323-2.382-5.577-5.327-6.395-.456-.12-.708-.143-1.885-.143-1.257-.007-1.415.008-2.088.177a12.64 12.64 0 0 0-3.258 1.35l-.237.143-.783-.407c-.993-.528-1.674-.796-2.645-1.052-.7-.177-.902-.203-2.005-.222-.67-.015-1.37.011-1.561.045Zm2.75 2.34c.53.11 1.162.324 1.81.603l.387.177-.726.754c-.402.415-.775.833-.835.93-.06.099-.312.45-.565.788a16.566 16.566 0 0 0-2.17 4.003c-.124.331-.252.644-.286.685-.087.121-.237.671-.444 1.62-.17.822-.184 1-.184 2.578-.008 1.338.018 1.783.101 2.118.06.238.094.426.068.426-.06-.007-.85-.983-1.23-1.534-1.735-2.49-2.634-5.747-2.292-8.324.124-.916.512-2.137.877-2.74.482-.821 1.482-1.643 2.366-1.952.836-.301 2.04-.347 3.123-.132Zm11.226.034c2.638.705 4.052 3.595 3.57 7.266-.266 2.027-.966 3.866-2.14 5.645-.429.644-1.298 1.748-1.34 1.71-.014-.014.02-.29.076-.625.23-1.417.192-2.935-.128-4.537-.162-.806-.482-1.933-.572-2.001a5.735 5.735 0 0 1-.27-.61c-.129-.32-.347-.815-.497-1.105-.271-.55-.444-.686-.708-.584-.082.027-1.196.705-2.483 1.508-1.286.799-2.46 1.518-2.618 1.594-.15.075-.312.188-.361.245-.143.17-.05.602.192.934.116.162.312.449.444.637.225.332.353.433.538.433.075 0 1.632-.964 2.844-1.77.312-.204.605-.4.654-.423.102-.06.305.57.538 1.68.512 2.47.11 4.945-1.053 6.479a4.475 4.475 0 0 1-1.652 1.323c-.726.346-1.362.46-2.264.422-1.306-.068-2.115-.422-3.033-1.338-.481-.483-.64-.697-.865-1.16-.933-1.942-1.054-3.852-.422-6.419.986-4.028 4.21-7.781 7.788-9.063a10.894 10.894 0 0 1 1.802-.414c.437-.05 1.453.038 1.96.173Zm17.547 2.273c-.726.075-1.354.184-1.531.263-.11.05-.478.196-.801.332-.945.373-1.558.795-2.393 1.628-.625.63-.801.855-1.068 1.364-.621 1.202-.85 2.314-.783 3.765.06 1.24.361 2.28.96 3.275.304.508 1.17 1.405 1.749 1.805.7.49 1.783.99 2.468 1.145.666.151 2.14.143 2.855-.015.967-.21 2.239-.897 2.92-1.567l.32-.32v.67c0 .543.026.705.135.882l.135.222h.933c.516 0 .975-.026 1.012-.053.219-.143.23-.358.23-3.06 0-2.374-.015-2.728-.11-2.815-.086-.094-.436-.109-2.746-.109h-2.644l-.136.177c-.124.155-.143.28-.143.95 0 .753.008.772.184.942.185.162.226.17 1.054.17.482 0 .869.026.869.06 0 .128-.655.63-1.114.863-.647.313-1.456.46-2.238.407-1.802-.12-3.096-1.172-3.563-2.898-.083-.305-.117-.686-.117-1.281 0-.747.027-.916.192-1.391.437-1.262 1.28-2.13 2.46-2.551.558-.196 1.66-.245 2.34-.102 1.062.222 2.014.89 2.51 1.756.301.524.38.558.9.38.925-.32 1.858-.719 1.918-.82.09-.136-.128-.66-.538-1.297-.68-1.044-1.55-1.745-2.78-2.22a12.88 12.88 0 0 1-.658-.271c-.305-.158-2.134-.347-2.78-.286Zm18.815.305-.177.136v6.342c0 5.724.015 6.357.11 6.504l.108.17 3.006-.008c3.1 0 3.202-.007 4.225-.286 2.137-.57 3.503-1.647 4.32-3.392.47-1.002.571-1.534.579-2.966 0-1.484-.102-1.982-.64-3.086-.843-1.715-2.28-2.774-4.496-3.305-.967-.222-1.362-.252-4.157-.252-2.626.003-2.701.007-2.878.143Zm6.44 2.668c.934.256 1.607.754 2.183 1.594.177.264.387.663.455.897.177.557.23 1.405.136 2.016-.076.501-.301 1.228-.395 1.296-.034.02-.177.219-.32.434-.516.765-1.197 1.24-2.122 1.473-.448.117-.756.136-2.114.136h-1.584v-3.953c0-2.178.018-3.984.052-4.01.027-.034.783-.041 1.682-.019 1.212.012 1.734.053 2.028.136ZM96.24 13.62c-.26.101-.264.196-.271 2.592v2.333l-.339-.32c-1.113-1.044-3.183-1.127-4.725-.189-.226.136-.59.434-.824.663-1.43 1.417-1.787 3.893-.843 5.826.798 1.644 2.585 2.714 4.327 2.593.903-.06 1.422-.298 2.122-.957l.286-.271v.32c0 .185.049.392.109.49.109.17.117.17 1.219.17.918 0 1.128-.02 1.219-.11.094-.094.109-.772.109-6.497 0-6.334 0-6.39-.136-6.538-.135-.143-.195-.15-1.143-.143-.56-.004-1.058.019-1.11.038Zm-1.565 6.444c.414.188.936.72 1.151 1.172.15.32.177.467.177 1.017 0 .596-.019.686-.226 1.1-.387.788-1.068 1.206-1.953 1.206-1.346 0-2.283-1.059-2.197-2.476a2.298 2.298 0 0 1 .749-1.601c.504-.49.843-.61 1.55-.577.26.015.572.076.749.159Zm12.208-6.324-.169.162v2.314c0 1.27-.015 2.306-.034 2.306-.015 0-.162-.135-.335-.297-.312-.306-.824-.577-1.339-.728-.448-.128-1.644-.116-2.164.027-.917.252-1.851.863-2.366 1.567-.169.223-.327.426-.361.449-.087.06-.279.475-.444.983-.245.739-.335 1.58-.252 2.288.083.61.353 1.545.545 1.839.565.84 1.197 1.458 1.964 1.9.655.372 1.11.515 1.829.568 1.034.076 1.821-.21 2.577-.934.158-.151.301-.264.327-.264.026 0 .049.12.049.279 0 .278.094.527.23.618.101.067 2.163.067 2.264 0 .211-.136.226-.468.226-6.599 0-6.553.008-6.478-.305-6.598-.06-.02-.556-.042-1.094-.042-.956-.004-.994 0-1.148.162Zm-1.516 6.316c.429.219.85.63 1.046 1.025.109.219.229.415.267.441.041.026.068.332.068.678 0 .562-.019.671-.196 1.025-.444.867-1.012 1.274-1.877 1.323-.937.05-1.644-.358-2.054-1.194-.204-.415-.226-.502-.226-1.1.007-.562.026-.694.192-1.018.195-.392.286-.51.673-.875.5-.46 1.509-.61 2.107-.305Zm15.335-4.47c-.027.02-.049.253-.049.51 0 .365.019.46.101.46.076 0 .102-.076.102-.291v-.286l.135.218c.076.12.158.223.192.223s.109-.102.169-.223l.11-.218v.286c.007.245.026.29.143.29.127 0 .142-.034.124-.494-.019-.433-.034-.49-.158-.49-.083 0-.185.095-.279.264l-.15.257-.075-.238c-.049-.128-.128-.256-.185-.279-.124-.041-.124-.041-.18.012ZM58.32 17.468c-1.754.347-3.15 1.508-3.68 3.06-.101.298-.21.577-.244.626-.17.218-.177 2.061 0 2.28.034.049.101.203.15.354.162.527.572 1.202 1.012 1.677.422.456 1.347 1.138 1.539 1.138.049 0 .124.041.162.094.041.05.312.162.605.253.693.21 1.904.222 2.668.034.598-.151 1.576-.671 2.103-1.112 1.584-1.342 2.07-3.535 1.238-5.577-.422-1.033-1.306-1.941-2.367-2.424-.899-.418-2.26-.588-3.186-.403ZM60 20.057c.136.048.335.154.437.244.903.754 1.076 1.067 1.08 1.952 0 .516-.027.63-.219 1.018-.304.625-.903 1.058-1.651 1.213-.933.188-1.919-.313-2.39-1.229-.229-.448-.259-1.307-.052-1.85.162-.433.734-1.078 1.155-1.289.448-.237 1.076-.256 1.64-.06Zm22.054-2.646c-.7.143-.925.203-1.328.365-1.189.49-2.039 1.398-2.456 2.63-.264.766-.362 1.418-.313 2.152.05.78.185 1.29.523 1.968.448.915 1.287 1.763 2.028 2.042.158.06.286.136.286.17 0 .177 1.407.433 2.07.38.883-.075 1.388-.305 2.068-.957l.286-.271v.32c0 .185.05.392.11.49.109.17.116.17 1.252.17 1.012 0 1.151-.016 1.246-.121.101-.117.116-.524.116-4.503 0-4.153-.007-4.383-.124-4.485-.11-.094-.3-.117-1.211-.117-1.313 0-1.389.027-1.389.558v.347l-.334-.313c-.414-.388-.91-.637-1.498-.765-.417-.094-1.023-.12-1.332-.06Zm1.765 2.626c.17.05.421.23.722.524.414.4.478.494.613.942.37 1.195-.101 2.36-1.15 2.85-.546.252-1.306.244-1.86-.016a2.257 2.257 0 0 1-1.034-1.059c-.117-.256-.143-.44-.143-1.025 0-.625.019-.754.17-1.044.263-.527.865-1.078 1.29-1.194.553-.136.854-.136 1.392.022Zm26.354-2.329c-.226.129-.203.373.135 1.474 1.851 5.969 2.292 7.34 2.401 7.495.128.189.143.189.85.189.545 0 .707.018.681.083-.015.049-.083.256-.136.467-.229.795-.598 1.1-1.339 1.104-.414 0-.53-.026-.952-.253-.557-.29-.801-.312-1-.101-.301.324-.836 1.228-.836 1.41 0 .252.267.493.843.78 1.189.583 2.972.576 4.067-.016.482-.264 1.087-.897 1.366-1.432.267-.509.346-.761.688-1.982.128-.467.523-1.839.877-3.052 1.012-3.452 1.681-5.8 1.681-5.92a.365.365 0 0 0-.109-.212c-.086-.086-.301-.109-1.256-.109-1.027 0-1.163.015-1.272.12-.135.136-.211.381-.831 2.763-.659 2.536-1.054 3.968-1.088 3.968-.026 0-.549-1.798-1.474-5.087-.128-.468-.264-.882-.294-.916a2.01 2.01 0 0 1-.143-.358c-.135-.467-.195-.49-1.557-.49-.655.008-1.242.041-1.302.075Z"/></svg>
